X:1
T:The Ballyvourney Polka
S:Polka apprise par Carole auprès de Cathal King lors du stage du Bono en 2010.
R:Polka
M:2/4
L:1/8
K:Edor
|: EF/G/ FE | FD FA | EF/G/ FE | F4 |
   EF/G/ FE | FD FA | BG B/c/d |1 e2 e2 :|2 e2 f>e
|: dA FA | DA FA | c>B GB | AE AB/c/ |
   dA FA | DA FA | BG B/c/d |1 e2 f>e :|2 e4 |
